picto/stands-b-fr-large.svg

<svg class="color-immutable" width="24" height="24" viewBox="0 0 24 24" fill="none" xmlns="http://www.w3.org/2000/svg"><path d="M0 22.5V1.5C0 0.675 0.675 0 1.5 0H22.5C23.325 0 24 0.675 24 1.5V22.5C24 23.325 23.325 24 22.5 24H1.5C0.675 24 0 23.325 0 22.5Z" fill="#2D327D"/><path d="M6.61099 7.508H12.683C13.987 7.508 14.959 7.671 15.599 7.997C16.202 8.305 16.657 8.751 16.965 9.335C17.223 9.827 17.353 10.35 17.353 10.904C17.353 11.519 17.196 12.067 16.882 12.547C16.568 13.027 16.113 13.405 15.516 13.682C16.033 13.854 16.42 14.036 16.679 14.226C17.552 14.866 17.989 15.798 17.989 17.022C17.989 17.748 17.828 18.4 17.505 18.978C17.182 19.556 16.719 20.021 16.116 20.372C15.402 20.791 14.439 21 13.227 21H6.61099V7.508ZM9.55399 9.824V12.971H12.249C12.877 12.971 13.338 12.897 13.633 12.75C14.18 12.486 14.454 12.03 14.454 11.384C14.454 10.837 14.282 10.44 13.937 10.194C13.592 9.948 13.029 9.825 12.248 9.825H9.55399V9.824ZM9.55399 14.983V18.684H12.535C13.39 18.684 13.99 18.564 14.335 18.324C14.79 17.998 15.018 17.503 15.018 16.838C15.018 16.044 14.71 15.503 14.095 15.214C13.757 15.06 13.187 14.983 12.388 14.983H9.55399Z" fill="white"/><path d="M5.318 5.218L5.087 5.467L4.755 5.167C4.609 5.257 4.428 5.303 4.21 5.303C4.043 5.303 3.889 5.272 3.747 5.211C3.605 5.149 3.487 5.061 3.392 4.945C3.21 4.725 3.118 4.451 3.118 4.124C3.118 3.77 3.225 3.484 3.439 3.266C3.649 3.053 3.914 2.946 4.233 2.946C4.398 2.946 4.551 2.977 4.691 3.038C4.831 3.099 4.95 3.186 5.047 3.299C5.237 3.52 5.332 3.792 5.332 4.113C5.332 4.288 5.306 4.449 5.253 4.595C5.2 4.741 5.125 4.861 5.027 4.955L5.318 5.218ZM4.684 4.638C4.786 4.503 4.836 4.329 4.836 4.118C4.836 3.892 4.784 3.711 4.681 3.574C4.572 3.428 4.42 3.355 4.224 3.355C4.034 3.355 3.884 3.427 3.773 3.57C3.666 3.707 3.613 3.891 3.613 4.121C3.613 4.359 3.668 4.547 3.779 4.684C3.89 4.823 4.038 4.893 4.225 4.893C4.3 4.893 4.369 4.882 4.433 4.859L4.209 4.663L4.44 4.417L4.684 4.638Z" fill="white"/><path d="M7.191 3.569V5.249H6.767V5.004C6.639 5.198 6.459 5.295 6.228 5.295C6.027 5.295 5.875 5.228 5.773 5.094C5.734 5.041 5.706 4.98 5.689 4.909C5.672 4.838 5.664 4.746 5.664 4.632V3.569H6.11V4.493C6.11 4.589 6.113 4.658 6.118 4.698C6.124 4.738 6.136 4.772 6.153 4.8C6.2 4.874 6.281 4.912 6.395 4.912C6.535 4.912 6.638 4.85 6.701 4.726C6.732 4.666 6.747 4.556 6.747 4.398V3.569H7.191Z" fill="white"/><path d="M9.052 5.249H8.597C8.578 5.183 8.568 5.12699 8.568 5.08099C8.429 5.22399 8.249 5.295 8.028 5.295C7.856 5.295 7.721 5.255 7.625 5.175C7.514 5.083 7.459 4.95399 7.459 4.789C7.459 4.57899 7.554 4.433 7.744 4.352C7.82 4.319 7.962 4.289 8.168 4.261C8.345 4.237 8.456 4.21499 8.499 4.19299C8.542 4.17099 8.565 4.12599 8.565 4.05999C8.565 3.91299 8.468 3.83999 8.273 3.83999C8.169 3.83999 8.094 3.85799 8.046 3.89499C7.998 3.93199 7.966 3.99599 7.951 4.08699H7.53C7.543 3.90099 7.613 3.75999 7.74 3.66499C7.867 3.56999 8.048 3.52299 8.283 3.52299C8.542 3.52299 8.734 3.57599 8.858 3.68099C8.916 3.73099 8.954 3.78299 8.973 3.83999C8.992 3.89699 9.001 3.98599 9.001 4.10799C9.001 4.13399 8.999 4.246 8.996 4.446C8.995 4.648 8.994 4.764 8.994 4.793C8.994 4.915 8.998 5.00399 9.005 5.06099C9.012 5.11899 9.028 5.181 9.052 5.249ZM8.562 4.438C8.504 4.474 8.4 4.50199 8.248 4.52299C8.141 4.53899 8.064 4.55999 8.017 4.58599C7.95 4.62199 7.917 4.683 7.917 4.769C7.917 4.839 7.939 4.893 7.983 4.932C8.027 4.971 8.089 4.98999 8.168 4.98999C8.299 4.98999 8.405 4.944 8.486 4.852C8.515 4.82 8.535 4.78699 8.546 4.75299C8.557 4.71899 8.562 4.673 8.562 4.617V4.438Z" fill="white"/><path d="M9.79799 3V3.401H9.35199V3H9.79799ZM9.79799 3.572V5.249H9.35199V3.572H9.79799Z" fill="white"/></svg>

<svg class="color-immutable" width="24" height="24" viewBox="0 0 24 24" fill="none" xmlns="http://www.w3.org/2000/svg"><g clip-path="url(#a)"><path d="M0 22.5v-21C0 .675.675 0 1.5 0h21c.825 0 1.5.675 1.5 1.5v21c0 .825-.675 1.5-1.5 1.5h-21C.675 24 0 23.325 0 22.5Z" fill="#2D327D"/><path d="M6.611 7.508h6.072c1.304 0 2.276.163 2.916.489a3.095 3.095 0 0 1 1.366 1.338c.258.492.388 1.015.388 1.569 0 .615-.157 1.163-.471 1.643-.314.48-.769.858-1.366 1.135.517.172.904.354 1.163.544.873.64 1.31 1.572 1.31 2.796 0 .726-.161 1.378-.484 1.956a3.667 3.667 0 0 1-1.389 1.394c-.714.419-1.677.628-2.889.628H6.611V7.508Zm2.943 2.316v3.147h2.695c.628 0 1.089-.074 1.384-.221.547-.264.821-.72.821-1.366 0-.547-.172-.944-.517-1.19-.345-.246-.908-.369-1.689-.369H9.554v-.001Zm0 5.159v3.701h2.981c.855 0 1.455-.12 1.8-.36.455-.326.683-.821.683-1.486 0-.794-.308-1.335-.923-1.624-.338-.154-.908-.231-1.707-.231H9.554ZM5.318 5.218l-.231.249-.332-.3a1.02 1.02 0 0 1-.545.136 1.16 1.16 0 0 1-.463-.092.932.932 0 0 1-.355-.266c-.182-.22-.274-.494-.274-.821 0-.354.107-.64.321-.858.21-.213.475-.32.794-.32.165 0 .318.031.458.092s.259.148.356.261c.19.221.285.493.285.814 0 .175-.026.336-.079.482a.927.927 0 0 1-.226.36l.291.263Zm-.634-.58a.84.84 0 0 0 .152-.52c0-.226-.052-.407-.155-.544a.537.537 0 0 0-.457-.219.54.54 0 0 0-.451.215c-.107.137-.16.321-.16.551 0 .238.055.426.166.563a.541.541 0 0 0 .446.209.61.61 0 0 0 .208-.034l-.224-.196.231-.246.244.221ZM7.191 3.569v1.68h-.424v-.245a.61.61 0 0 1-.539.291c-.201 0-.353-.067-.455-.201a.506.506 0 0 1-.084-.185 1.228 1.228 0 0 1-.025-.277V3.569h.446v.924c0 .096.003.165.008.205.006.04.018.074.035.102.047.074.128.112.242.112a.32.32 0 0 0 .306-.186c.031-.06.046-.17.046-.328v-.829h.444ZM9.052 5.249h-.455a.629.629 0 0 1-.029-.168.72.72 0 0 1-.54.214c-.172 0-.307-.04-.403-.12a.474.474 0 0 1-.166-.386c0-.21.095-.356.285-.437.076-.033.218-.063.424-.091.177-.024.288-.046.331-.068.043-.022.066-.067.066-.133 0-.147-.097-.22-.292-.22-.104 0-.179.018-.227.055-.048.037-.08.101-.095.192H7.53a.545.545 0 0 1 .21-.422c.127-.095.308-.142.543-.142.259 0 .451.053.575.158.058.05.096.102.115.159a.92.92 0 0 1 .028.268l-.005.338-.002.347c0 .122.004.211.011.268a.89.89 0 0 0 .047.188Zm-.49-.811a.875.875 0 0 1-.314.085.734.734 0 0 0-.231.063c-.067.036-.1.097-.1.183 0 .07.022.124.066.163a.27.27 0 0 0 .185.058.403.403 0 0 0 .318-.138.274.274 0 0 0 .06-.099.46.46 0 0 0 .016-.136v-.179ZM9.798 3v.401h-.446V3h.446Zm0 .572v1.677h-.446V3.572h.446Z" fill="#fff"/></g><defs><clipPath id="a"><path fill="#fff" d="M0 0h24v24H0z"/></clipPath></defs></svg>
